X:1
T:Title
%%score { ( 1 3 ) | ( 2 4 ) }
L:1/8
M:3/4
K:F
V:1 treble nm="Grand Piano"
V:3 treble 
V:2 bass 
V:4 bass 
V:1
 z2 z2[Q:1/4=100] C2 | A2 A2 G2 | F2 C2 A2 | z2 z2 B2 | A4 A2 | B2 [EG]2 [GB]2 | A2 F2 A2 | %7
 G2 c2 d2 | [Ec]4 C2 | A2 A2 G2 | F2 C2 A2 | z2 z2 B2 | A4 [FA]2 | [FB]2 [FB]2 [Fc]2 | %14
[M:7/8] [Fd]2 [DF]3 [^CFG]2 |[M:3/4] [CFA]2 [A,C]2 [B,CG]2 | [A,CF]4 z2 | [EG]2 [EG]2 [FA]2 | %18
 [EG]2 [CE]4 | [Ec]2 [Ec]2 [Ed]2 | c2 A4 | =B2 B2 c2 | d2 [Af]2 [Ge]2 | [Ad]2 [Gc]2 [F=B]2 | %24
[M:7/8] [Ec]-[Ec]-[Ec]- [Ec]- [Ec]3 |[M:3/4] c2 c2 d2 | c2 A4 | [C_EA]2 [CEA]2 [A,EG]2 | z2 [DB]4 | %29
 [Dd]2 [Ed]2 [Fd]2 | %30
[M:7/8] [Fd]2 [Fc]3[K:bass] [F,C]2[Q:1/4=98][Q:1/4=97][Q:1/4=95][Q:1/4=94][Q:1/4=92][Q:1/4=91][Q:1/4=89][Q:1/4=88][Q:1/4=86][Q:1/4=84][Q:1/4=83][Q:1/4=81][Q:1/4=80][Q:1/4=78][Q:1/4=77] | %31
[M:3/4] [F,=B,D]2 [F,B,D]2 [G,_B,E]2 |[M:2/4] [F,A,F]4 |] %33
V:2
 z2 z2 [F,A,]2 | [F,CF]2 [F,CF]2 [F,B,C]2 | [F,A,C]2 [F,A,]2 [F,C]2 | %3
 [A,CF]2 [A,C]2[K:bass] .[G,B,D]2 | [F,CF]4 [^F,C_E]2 | [G,CE]2 [C,C]2 [E,C]2 | %6
 [F,CF]2 [A,C]2 [F,CF]2 | [G,CE]2 [G,E]2 [G,=B,F]2 | [C,C]4 [E,B,]2 | [F,A,F]2 [F,CF]2 [F,B,C]2 | %10
 [F,A,C]2 [F,A,]2 [F,C]2 | [A,CF]2 [A,C]2[K:bass] .[G,B,D]2 | [F,CF]4 [_E,C]2 | %13
 [D,B,]2 [D,B,]2 [C,A,]2 |[M:7/8] [B,,B,]2 B,,3 B,,2 |[M:3/4] C,2 C,2 C,2 | F,4 z2 | %17
 [C,C]2 [C,C]2 [C,C]2 | [C,C]2 [C,G,]4 | [C,B,]2 [C,B,]2 [C,B,]2 | [F,A,F]2 [F,CF]4 | %21
 [G,=B,F]2 [G,DF]2 [G,CE]2 | [G,=B,F]2[K:bass] [G,B,]2 [G,C]2 | [F,F]2 [G,E]2 [G,D]2 | %24
[M:7/8] C2 z z z z2 |[M:3/4] [F,A,F]2 [F,A,F]2 [F,_A,F]2 | [F,A,F]2 [F,CF]4 | F,,2 F,,2 F,,2 | %28
 B,,2 z2 A,2 | [=B,,_A,]2 [B,,A,]2 [B,,A,]2 |[M:7/8] [C,A,]2 [C,A,]3 A,,2 |[M:3/4] G,,2 G,,2 C,2 | %32
[M:2/4] F,,4 |] %33
V:3
 x6 | x6 | x6 | c2 c2 z E | x6 | x6 | x6 | x6 | x6 | x6 | x6 | c2 c2 z E | x6 | x6 |[M:7/8] x7 | %15
[M:3/4] x6 | x6 | x6 | x6 | x6 | x6 | x6 | x6 | x6 |[M:7/8] z2 G,2 B,3 |[M:3/4] x6 | x6 | x6 | %28
 [B,DF]2 B,2 z2 | x6 |[M:7/8] x5[K:bass] x2 |[M:3/4] x6 |[M:2/4] x4 |] %33
V:4
 x6 | x6 | x6 | x4[K:bass] x2 | x6 | x6 | x6 | x6 | x6 | x6 | x6 | x4[K:bass] x2 | x6 | x6 | %14
[M:7/8] x7 |[M:3/4] x6 | x6 | x6 | x6 | x6 | x6 | x6 | x2[K:bass] x4 | x6 | %24
[M:7/8] C,-C,-C,- C,- C,2- C,/ z/ |[M:3/4] x6 | x6 | x6 | z2 B,,4 | x6 |[M:7/8] x7 |[M:3/4] x6 | %32
[M:2/4] x4 |] %33

